X:1
T:Merry Christmas Bells are Ringing
T:Merry Christmas Bells are Ringing
T:William Wallace Gilchrist
T:4. And have we no gifts to offer To our Lord and King? Lord, "ourselves, our souls and bodies," Unto Thee we bring.  With our lives glad homage pay To the Saviour, born to-day!  
T:3. Precious Christmas gifts are gladdening Many a hearth and home; But the "Gift, all gifts excelling,!- Christ, Himself, is come:  In your hearts make speedy room; For the Christ, the Lord is come!  
T:Public Domain - https://imslp.org/wiki/Merry_Christmas_Bells_are_Ringing%2C_Schleifer_340_(Gilchrist%2C_William_Wallace)
Z:Public Domain - https://imslp.org/wiki/Merry_Christmas_Bells_are_Ringing%2C_Schleifer_340_(Gilchrist%2C_William_Wallace)
%%score ( 1 2 ) ( 3 4 ) { ( 5 6 ) | ( 7 8 9 ) }
L:1/8
Q:1/4=110
M:4/4
K:Bb
V:1 treble nm="Voice"
V:2 treble 
V:3 treble transpose=24 nm="Glockenspiel"
V:4 treble transpose=24 
V:5 treble nm="Piano"
V:6 treble 
V:7 bass 
V:8 bass 
V:9 bass 
V:1
 B2 (GA) B2 (GA) | (Be) (dc) B2 G2 | (BA) G2 (BG E2) | B8 | B2 (GA) B2 ((GA)) | B2 (dc) B2 G2 | %6
w: 1. Mer\- ry * Christ\- mas *|bells * are * ring\- ing,|Ring\- * ing far * and|near;|An\- gels' * voi\- ces *|sweet\- ly * sing\- ing,|
w: 2. Hap\- py * voi\- ces *|catch * the * ech\- o|Of * tha an\- * gels'|song;|Grand old * chant, and *|joy\- ous * car\- ol,|
 FB cd d2 =A2 | B8 | d2 B2 e2 B2 | (Bc) (BA) G4 | d2 G2 e2 B2 | ((Bc)) (BA) G4 | e2 d2 c2 B2 | %13
w: Sing\- * ing * hight and|clear;|"Glo\- ry! for the|Lord * is * come|Jesus ma\- kes the|earth * his * home;|Glo\- ry! for the|
w: Ring * the * aisles a\-|long.|Let our lips their|hom\- * age * pay,||||
 d2 c2 (B2 A2) | (GB) (Be) (ec) (AF) | B2 D2 E4!D.C.! |] %16
w: Lord is co\- me,|Je\- sus ma\- * kes * the *|hearth his home."|
w: |||
V:2
 x8 | x8 | x8 | x8 | x8 | (Be) x6 | x8 | x8 | x8 | x8 | x8 | x8 | e2 x6 | x8 | x8 | x8 |] %16
V:3
 B2 (G A) B2 (G A) | (B e) (d c) B2 G2 | (B A) G2 (B G E2) | B8 | B2 (G A) B2 ((G A)) | %5
 B2 (d c) B2 G2 | F B c d d2 A2 | B8 | d2 B2 e2 B2 | (B c) (B A) G4 | d2 G2 e2 B2 | %11
 ((B c)) (B A) G4 | e2 d2 c2 B2 | d2 c2 (B2 A2) | (G B) (B e) (e c) (A F) | B2 D2 E4 |] %16
V:4
 x8 | x8 | x8 | x8 | x8 | (B e) x6 | x8 | x8 | x8 | x8 | x8 | x8 | e2 x6 | x8 | x8 | x8 |] %16
V:5
 [EB]2 GA [EB]2 GA | Bedc [EB]2 [EG]2 | BA [DF]2 BG E2 | B4 D4 | [EB]2 GA [EB]2 GA | %5
 Bedc [EB]2 [EG]2 | FB cd [Fe]2 [E=A]2 | [DB]8 | [Fd]2 [DB]2 [Ee]2 [EB]2 | BcBA G4 | %10
 [Fd]2 [DB]2 [Ee]2 [EB]2 | BcBA [EG]4 | [Ge]2 [Gd]2 [Ec]2 [EB]2 | [Ed]2 c2 [B,EB]2 A2 | %14
 GB Be ec AF | B2 [B,D]2 [B,E]4 |] %16
V:6
 x2 E2 x2 E2 | E4 x4 | D2 x2 E4 | (E2 DC) x4 | x2 E2 x2 E2 | E4 x4 | D2 F2 x4 | x8 | x8 | %9
 F2 D2 E4 | x8 | F2 D2 x4 | x8 | x2 EF x2 CD | E2 E2 E2 E2 | E2 x6 |] %16
V:7
 [E,G,]2 E,F, [E,G,]2 E,F, | (G,CB,A,) [E,G,]2 E,2 | F,2 B,2 G,2 [G,B,]2 | (G,2 F,E,) F,4 | %4
 [E,G,]2 E,F, [E,G,]2 E,F, | G,C B,A, [E,G,]2 E,2 | [F,B,]2 =A,B, [F,C]2 [F,C]2 | [B,,B,]8 | %8
 B,2 B,2 B,2 B,2 | [D,,D,B,]2 [B,,B,]2 [E,B,]4 | B,2 B,2 B,2 B,2 | [D,,D,B,]2 [B,,B,]2 [E,B,]4 | %12
 [C,C]2 [G,B,]2 A,2 [E,G,]2 | B,2 A,2 [E,G,]2 [B,,B,]2 | [E,B,]2 [_D,G,]2 [C,A,]2 [A,,C]2 | %15
 [B,,G,]2 [B,,A,]2 [E,,E,G,]4 |] %16
V:8
 x2 E,2 x2 E,2 | E,4 x2 E,2 | B,,4 C,4 | B,,8 | x2 E,2 x2 E,2 | E,2 E,2 x2 E,2 | x2 F,2 x4 | x8 | %8
 B,,2 A,,2 G,,A,,G,,E,, | x8 | B,,2 A,,2 G,,A,,G,,E,, | x8 | x4 A,2 x2 | x8 | x8 | x8 |] %16
V:9
 x8 | x8 | x8 | x8 | x8 | x8 | x8 | x8 | x2 B,2 G,A,G,E, | x8 | x2 B,2 G,A,G,E, | x8 | x8 | x8 | %14
 x8 | x8 |] %16

